X: 1
T: All the Way to Galway
T: the Road to Lisdoonvarna Reel
%D:
R: march, reel
S: Fiddle Hell Online 2022-4-3 Marla Fibish workshop
Z: 2022 John Chambers <jc:trillian.mit.edu>
M: 4/4
L: 1/8
K: Dmix	% and D Aeolian
"^A"|: DAAG  ABcA | GEEE  cEGE | DAAG  ABcA | B2AG FDD2 :|
"^B"|: defd ^cAAA | BGGB ^cAA2 | defd ^cAAA | B2AG FDD2 :|
